svgs/sharp-light/arrow-down-to-line.svg

<svg xmlns="http://www.w3.org/2000/svg" viewBox="0 0 384 512"><!--! Font Awesome Pro 6.6.0 by @fontawesome - https://fontawesome.com License - https://fontawesome.com/license (Commercial License) Copyright 2024 Fonticons, Inc. --><path d="M16 480L0 480l0-32 16 0 352 0 16 0 0 32-16 0L16 480zM203.3 379.3L192 390.6l-11.3-11.3-128-128L41.4 240 64 217.4l11.3 11.3L176 329.4 176 224l0-176 0-16 32 0 0 16 0 176 0 105.4L308.7 228.7 320 217.4 342.6 240l-11.3 11.3-128 128z"/></svg>

<svg xmlns="http://www.w3.org/2000/svg" viewBox="0 0 384 512"><!--! Font Awesome Pro 6.4.0 by @fontawesome - https://fontawesome.com License - https://fontawesome.com/license (Commercial License) Copyright 2023 Fonticons, Inc. --><path d="M16 480H0V448H16 368h16v32H368 16zM203.3 379.3L192 390.6l-11.3-11.3-128-128L41.4 240 64 217.4l11.3 11.3L176 329.4V224 48 32h32V48 224 329.4L308.7 228.7 320 217.4 342.6 240l-11.3 11.3-128 128z"/></svg>
